resources/haticons/SVG/trip_origin.svg

<!-- Generated by IcoMoon.io -->
<svg version="1.1" xmlns="http://www.w3.org/2000/svg" width="24" height="24" viewBox="0 0 24 24">
<title>trip_origin</title>
<path d="M12 18q2.484 0 4.242-1.758t1.758-4.242-1.758-4.242-4.242-1.758-4.242 1.758-1.758 4.242 1.758 4.242 4.242 1.758zM2.016 12q0-4.125 2.93-7.055t7.055-2.93 7.055 2.93 2.93 7.055-2.93 7.055-7.055 2.93-7.055-2.93-2.93-7.055z"></path>
</svg>

<svg xmlns="http://www.w3.org/2000/svg" width="24" height="24"><path d="M12 18q2.484 0 4.242-1.758T18 12t-1.758-4.242T12 6 7.758 7.758 6 12t1.758 4.242T12 18zm-9.984-6q0-4.125 2.93-7.055t7.055-2.93 7.055 2.93T21.986 12t-2.93 7.055-7.055 2.93-7.055-2.93T2.016 12z"/></svg>
